X: 1
T: Joy to the World
C: Words: Isaac Watts, 1719.
C: Music: 'Antioch' pieced together from 'Messiah' George F. Handel, 1741.  Setting: Lowell Mason, 1836.
C: copyright: public domain.  This score is a part of the Open Hymnal Project, 2005 Revision.
S: Music source: 'Lutheran Worship' Hymnal, 1982 Hymn 53.
M: 2/4 % time signature
L: 1/4 % default length
%%staves S1 | (S2V1 S2V2) 
V: S1 clef=treble 
V: S2V1 clef=bass 
V: S2V2 
K: D % key signature
%
%%MIDI program 1 0 % Piano 1
%%MIDI program 2 0 % Piano 1
%%MIDI program 3 0 % Piano 1
%
% 1
[V: S1] [Q:1/4=80] [Fd] [A3/4c3/4][G//B//] | [F3/2A3/2] [E/G/] | [DF] [CE] | D3/2 [D/A/] & D3/2 x/ | [G3/2B3/2] [G/B/] | [E3/2c3/2] [E/c/] | [F3/2d3/2]
w: 1.~Joy to the world, the Lord is come! Let earth re- ceive her King; 
w: 2.~Joy to the earth, the Sa- vior reigns! Let men their songs em- ploy; 
w: 3.~No more let sins and sor- rows grow, Nor thorns in- fest the ground; 
w: 4.~He rules the world with truth and grace, And makes the na- tions prove 
[V: S2V1]  x2 | x2 | A,3/2 G,/ | x2 | x3/2 x/ | A,3/2 A,/ | x3/2
[V: S2V2]  [D,D] [D,3/4D3/4][D,//D//] | [D,3/2D3/2] [G,,/B,/] | A,, A,, | [D,3/2F,3/2] [F,/D/] | [G,3/2D3/2] [G,/D/] | A,3/2 A,/ | [D,3/2A,3/2]
% 5
[V: S1]  [F/d/] | [F/d/][A/c/] [G/B/][F/A/] | [F3/4A3/4][E//G//][D/F/] [F/d/] | [F/d/][A/c/] [G/B/][F/A/] | [F3/4A3/4][E//G//][D/F/] [D/F/] | [D/F/][D/F/] [D/F/][D//F//][E//G//] | [F3/2A3/2]
w: Let ev- * 'ry * heart * * pre- pare * Him * room, * * And Heav'n and na- ture * sing, 
w: While fields * and * floods, * * rocks, hills * and * plains * * Re- peat the sound- ing * joy, 
w: He comes * to * make * * His bless- * ings * flow * * Far as the curse is * found, 
w: The glo- * ries * of * * His right- * eous- * ness, * * And won- ders of His * love, 
[V: S2V1]  x/ | x2 | x3/2 x/ | x2 | x2 | x2 | x3/2
[V: S2V2]  [D,/A,/] | [D,A,] [D,D] | [D,3/2D3/2] [D,/A,/] | [D,A,] [D,D] | [D,3/2D3/2] z/ | z3/2 [D,/A,/] | (,([D,/A,/][D,/A,/] [D,/A,/]))
% 13
[V: S1]  [E//G//][D//F//] | [C/E/][C/E/] [C/E/][C//E//][D//F//] | [E3/2G3/2] [D//F//][C//E//] | (,(D/ [Fd])) [G/B/] & D/ x3/2 | [F3/4A3/4][E//G//][D/F/] [E/G/] | [DF] [CE] | D2 |]
w: And * Heav'n and na- ture * sing, And * Heav'n, * and Heav'n, * * and na- ture sing.
w: Re- * peat the sound- ing * joy, Re- * peat, * re- peat, * * the sound- ing joy. 
w: Far * as the curse is * found, Far * as, * far as, * * the curse is found. 
w: And * won- ders of His * love, And * won- * ders, won- * * ders, of His love. 
[V: S2V1]  x/ | A,2 | A,3/2 A,//G,// | (F,/ A,) x/ | x2 | x A,/G,/ | x2 |]
[V: S2V2] [D,/A,/] | A,3/2 A,,/ | A,,/A,,/ A,,/A,,/ | D,3/2 [D,/D/] | [D,3/2D3/2] [G,,/B,/] | [A,,A,] A,, | [D,2F,2] |]
% 20
